svgs/solid/car-battery.svg

<svg xmlns="http://www.w3.org/2000/svg" viewBox="0 0 512 512"><!-- Font Awesome Pro 6.0.0-alpha2 by @fontawesome - https://fontawesome.com License - https://fontawesome.com/license (Commercial License) --><path d="M448 128H448V80C448 71.163 440.837 64 432 64H336C327.163 64 320 71.163 320 80V128H192V80C192 71.163 184.837 64 176 64H80C71.163 64 64 71.163 64 80V128H64C28.8 128 0 156.8 0 192V384C0 419.2 28.8 448 64 448H448C483.2 448 512 419.2 512 384V192C512 156.8 483.2 128 448 128ZM176 272H80C71.164 272 64 264.836 64 256S71.164 240 80 240H176C184.836 240 192 247.164 192 256S184.836 272 176 272ZM432 272H400V304C400 312.836 392.836 320 384 320S368 312.836 368 304V272H336C327.164 272 320 264.836 320 256S327.164 240 336 240H368V208C368 199.164 375.164 192 384 192S400 199.164 400 208V240H432C440.836 240 448 247.164 448 256S440.836 272 432 272Z"/></svg>

<svg xmlns="http://www.w3.org/2000/svg" viewBox="0 0 512 512"><!--! Font Awesome Pro 6.0.0-alpha3 by @fontawesome - https://fontawesome.com License - https://fontawesome.com/license (Commercial License) --><path d="M448 128V80C448 71.16 440.8 64 432 64h-96C327.2 64 320 71.16 320 80V128H192V80C192 71.16 184.8 64 176 64h-96C71.16 64 64 71.16 64 80V128C28.8 128 0 156.8 0 191.1v192C0 419.2 28.8 448 63.1 448H448c35.2 0 64-28.8 64-63.1V191.1C512 156.8 483.2 128 448 128zM176 272h-96C71.16 272 64 264.8 64 256s7.164-16 16-16h96C184.8 240 192 247.2 192 256S184.8 272 176 272zM432 272h-32v32c0 8.836-7.164 16-16 16s-16-7.164-16-16v-32h-32C327.2 272 320 264.8 320 256s7.164-16 16-16h32v-32C368 199.2 375.2 192 384 192s16 7.164 16 16v32h32C440.8 240 448 247.2 448 256S440.8 272 432 272z"/></svg>
